;FLAVOR:Marlin
;TIME:9667
;Filament used: 7.1121m
;Layer height: 0.2
;MINX:72.7
;MINY:64.7
;MINZ:0.2
;MAXX:162.3
;MAXY:170.3
;MAXZ:26.6
;Generated with Cura_SteamEngine main
M140 S50
M105
M190 S50
M104 S200
M105
M109 S200
M82 ;absolute extrusion mode
; Ender 3 Custom Start G-code
G92 E0 ; Reset Extruder
G28 ; Home all axes
G1 Z2.0 F3000 ; Move Z Axis up little to prevent scratching of Heat Bed
G1 X0.1 Y20 Z0.3 F5000.0 ; Move to start position
G1 X0.1 Y200.0 Z0.3 F1500.0 E15 ; Draw the first line
G1 X0.4 Y200.0 Z0.3 F5000.0 ; Move to side a little
G1 X0.4 Y20 Z0.3 F1500.0 E30 ; Draw the second line
G92 E0 ; Reset Extruder
G1 Z2.0 F3000 ; Move Z Axis up little to prevent scratching of Heat Bed
G1 X5 Y20 Z0.3 F5000.0 ; Move over to prevent blob squish
G92 E0
G92 E0
G1 F2700 E-5
;LAYER_COUNT:133
;LAYER:0
M107
G0 F6000 X75.532 Y68.831 Z0.2
G0 X72.701 Y76.49
;TYPE:SKIRT
G1 F2700 E0
G1 F1200 X72.731 Y75.81 E0.02264
G1 X72.791 Y75.124 E0.04554
G1 X72.899 Y74.342 E0.0718
G1 X73.025 Y73.794 E0.0905
G1 X73.204 Y73.123 E0.1136
G1 X73.445 Y72.371 E0.13986
G1 X73.675 Y71.828 E0.15948
G1 X73.972 Y71.193 E0.18279
G1 X74.342 Y70.496 E0.20904
G1 X74.649 Y70.022 E0.22782
G1 X75.047 Y69.454 E0.25089
G1 X75.532 Y68.831 E0.27715
G1 X75.92 Y68.415 E0.29607
G1 X76.415 Y67.92 E0.31935
G1 X77.001 Y67.39 E0.34563
G1 X77.454 Y67.047 E0.36453
G1 X78.022 Y66.649 E0.3876
G1 X78.691 Y66.229 E0.41387
G1 X79.189 Y65.974 E0.43248
G1 X79.823 Y65.677 E0.45577
G1 X80.554 Y65.378 E0.48204
G1 X81.124 Y65.203 E0.50187
G1 X81.796 Y65.024 E0.525
G1 X82.569 Y64.859 E0.55129
G1 X83.124 Y64.791 E0.56988
G1 X83.821 Y64.73 E0.59316
G1 X84.501 Y64.7 E0.61579
G1 X150.51 Y64.701 E2.81126
G1 X151.19 Y64.731 E2.8339
G1 X151.876 Y64.791 E2.8568
G1 X152.658 Y64.899 E2.88306
G1 X153.204 Y65.024 E2.90169
G1 X153.876 Y65.203 E2.92482
G1 X154.627 Y65.444 E2.95105
G1 X155.177 Y65.677 E2.97092
G1 X155.811 Y65.974 E2.99421
G1 X156.508 Y66.344 E3.02045
G1 X156.978 Y66.649 E3.03909
G1 X157.546 Y67.047 E3.06216
G1 X158.169 Y67.532 E3.08842
G1 X158.585 Y67.92 E3.10734
G1 X159.08 Y68.415 E3.13062
G1 X159.61 Y69.001 E3.1569
G1 X159.953 Y69.454 E3.1758
G1 X160.351 Y70.022 E3.19887
G1 X160.771 Y70.691 E3.22514
G1 X161.027 Y71.19 E3.24379
G1 X161.323 Y71.822 E3.267
G1 X161.621 Y72.553 E3.29326
G1 X161.795 Y73.117 E3.31289
G1 X161.975 Y73.791 E3.33609
G1 X162.14 Y74.564 E3.36238
G1 X162.209 Y75.122 E3.38108
G1 X162.27 Y75.817 E3.40429
G1 X162.3 Y76.499 E3.42699
G1 X162.299 Y158.51 E6.15469
G1 X162.269 Y159.19 E6.17733
G1 X162.209 Y159.876 E6.20023
G1 X162.101 Y160.658 E6.22649
G1 X161.975 Y161.206 E6.24519
G1 X161.796 Y161.877 E6.26829
G1 X161.555 Y162.629 E6.29455
G1 X161.325 Y163.172 E6.31417
G1 X161.028 Y163.807 E6.33748
G1 X160.658 Y164.504 E6.36373
G1 X160.351 Y164.978 E6.38251
G1 X159.953 Y165.546 E6.40558
G1 X159.468 Y166.169 E6.43184
G1 X159.08 Y166.585 E6.45076
G1 X158.585 Y167.08 E6.47404
G1 X157.999 Y167.61 E6.50032
G1 X157.546 Y167.953 E6.51922
G1 X156.978 Y168.351 E6.54229
G1 X156.309 Y168.771 E6.56856
G1 X155.811 Y169.026 E6.58717
G1 X155.177 Y169.323 E6.61046
G1 X154.446 Y169.622 E6.63673
G1 X153.876 Y169.797 E6.65656
G1 X153.204 Y169.976 E6.67969
G1 X152.431 Y170.141 E6.70598
G1 X151.876 Y170.209 E6.72457
G1 X151.179 Y170.27 E6.74785
G1 X150.499 Y170.3 E6.77048
G1 X84.49 Y170.299 E8.96595
G1 X83.81 Y170.269 E8.98859
G1 X83.124 Y170.209 E9.0115
G1 X82.342 Y170.101 E9.03775
G1 X81.796 Y169.976 E9.05638
G1 X81.124 Y169.797 E9.07951
G1 X80.373 Y169.556 E9.10574
G1 X79.823 Y169.323 E9.12561
G1 X79.189 Y169.026 E9.1489
G1 X78.492 Y168.656 E9.17514
G1 X78.022 Y168.351 E9.19378
G1 X77.454 Y167.953 E9.21685
G1 X76.831 Y167.468 E9.24311
G1 X76.415 Y167.08 E9.26203
G1 X75.92 Y166.585 E9.28531
G1 X75.39 Y165.999 E9.31159
G1 X75.047 Y165.546 E9.33049
G1 X74.649 Y164.978 E9.35356
G1 X74.229 Y164.309 E9.37983
G1 X73.972 Y163.807 E9.39859
G1 X73.675 Y163.172 E9.4219
G1 X73.377 Y162.44 E9.44819
G1 X73.204 Y161.877 E9.46778
G1 X73.025 Y161.206 E9.49088
G1 X72.86 Y160.434 E9.51713
G1 X72.791 Y159.878 E9.53577
G1 X72.73 Y159.183 E9.55897
G1 X72.7 Y158.501 E9.58168
G1 X72.701 Y76.49 E12.30938
G0 F6000 X73.101 Y76.49
G1 F1200 X73.129 Y75.845 E12.33085
G1 X73.189 Y75.159 E12.35375
G1 X73.296 Y74.398 E12.37931
G1 X73.411 Y73.897 E12.39641
G1 X73.59 Y73.226 E12.41951
G1 X73.827 Y72.494 E12.4451
G1 X74.037 Y71.998 E12.46301
G1 X74.334 Y71.363 E12.48633
G1 X74.696 Y70.684 E12.51192
G1 X74.977 Y70.252 E12.52906
G1 X75.375 Y69.684 E12.55213
G1 X75.848 Y69.077 E12.57772
G1 X76.202 Y68.697 E12.595
G1 X76.697 Y68.202 E12.61828
G1 X77.269 Y67.688 E12.64386
G1 X77.684 Y67.375 E12.66115
G1 X78.252 Y66.977 E12.68421
G1 X78.904 Y66.569 E12.7098
G1 X79.359 Y66.336 E12.7268
G1 X79.993 Y66.039 E12.75008
G1 X80.705 Y65.749 E12.77565
G1 X81.227 Y65.589 E12.79381
G1 X81.899 Y65.41 E12.81694
G1 X82.652 Y65.251 E12.84254
G1 X83.159 Y65.189 E12.85953
G1 X83.856 Y65.128 E12.8828
G1 X84.501 Y65.1 E12.90427
G1 X150.51 Y65.101 E15.09974
G1 X151.155 Y65.129 E15.12121
G1 X151.841 Y65.189 E15.14412
G1 X152.602 Y65.296 E15.16968
G1 X153.101 Y65.41 E15.1867
G1 X153.773 Y65.589 E15.20983
G1 X154.505 Y65.826 E15.23542
G1 X155.007 Y66.039 E15.25356
G1 X155.641 Y66.336 E15.27685
G1 X156.32 Y66.698 E15.30244
G1 X156.748 Y66.977 E15.31943
G1 X157.316 Y67.375 E15.3425
G1 X157.923 Y67.848 E15.36809
G1 X158.303 Y68.202 E15.38537
G1 X158.798 Y68.697 E15.40865
G1 X159.312 Y69.269 E15.43423
G1 X159.625 Y69.684 E15.45152
G1 X160.023 Y70.252 E15.47459
G1 X160.431 Y70.904 E15.50017
G1 X160.664 Y71.359 E15.51717
G1 X160.96 Y71.991 E15.54038
G1 X161.25 Y72.704 E15.56598
G1 X161.408 Y73.221 E15.58396
G1 X161.588 Y73.895 E15.60717
G1 X161.748 Y74.647 E15.63274
G1 X161.811 Y75.157 E15.64983
G1 X161.872 Y75.852 E15.67303
G1 X161.9 Y76.499 E15.69457
G1 X161.899 Y158.51 E18.42227
G1 X161.871 Y159.155 E18.44374
G1 X161.811 Y159.841 E18.46665
G1 X161.704 Y160.602 E18.49221
G1 X161.589 Y161.103 E18.5093
G1 X161.41 Y161.774 E18.5324
G1 X161.173 Y162.506 E18.55799
G1 X160.963 Y163.002 E18.57591
G1 X160.666 Y163.637 E18.59922
G1 X160.304 Y164.316 E18.62482
G1 X160.023 Y164.748 E18.64196
G1 X159.625 Y165.316 E18.66502
G1 X159.152 Y165.923 E18.69062
G1 X158.798 Y166.303 E18.70789
G1 X158.303 Y166.798 E18.73118
G1 X157.731 Y167.312 E18.75675
G1 X157.316 Y167.625 E18.77404
G1 X156.748 Y168.023 E18.79711
G1 X156.096 Y168.431 E18.82269
G1 X155.641 Y168.664 E18.83969
G1 X155.007 Y168.961 E18.86298
G1 X154.295 Y169.251 E18.88855
G1 X153.773 Y169.411 E18.90671
G1 X153.101 Y169.59 E18.92984
G1 X152.348 Y169.749 E18.95544
G1 X151.841 Y169.811 E18.97242
G1 X151.144 Y169.872 E18.99569
G1 X150.499 Y169.9 E19.01717
G1 X84.49 Y169.899 E21.21264
G1 X83.845 Y169.871 E21.23411
G1 X83.159 Y169.811 E21.25701
G1 X82.398 Y169.704 E21.28257
G1 X81.899 Y169.59 E21.2996
G1 X81.227 Y169.411 E21.32273
G1 X80.495 Y169.174 E21.34832
G1 X79.993 Y168.961 E21.36646
G1 X79.359 Y168.664 E21.38974
G1 X78.68 Y168.302 E21.41533
G1 X78.252 Y168.023 E21.43233
G1 X77.684 Y167.625 E21.45539
G1 X77.077 Y167.152 E21.48099
G1 X76.697 Y166.798 E21.49826
G1 X76.202 Y166.303 E21.52155
G1 X75.688 Y165.731 E21.54712
G1 X75.375 Y165.316 E21.56441
G1 X74.977 Y164.748 E21.58748
G1 X74.569 Y164.096 E21.61306
G1 X74.334 Y163.637 E21.63021
G1 X74.037 Y163.002 E21.65353
G1 X73.748 Y162.289 E21.67912
G1 X73.59 Y161.774 E21.69703
G1 X73.411 Y161.103 E21.72013
G1 X73.252 Y160.351 E21.7457
G1 X73.189 Y159.843 E21.76272
G1 X73.128 Y159.148 E21.78593
G1 X73.1 Y158.501 E21.80747
G1 X73.101 Y76.49 E24.53516
G0 F6000 X73.501 Y76.49
G1 F1200 X73.528 Y75.88 E24.55547
G1 X73.588 Y75.194 E24.57838
G1 X73.693 Y74.453 E24.60327
G1 X73.798 Y74 E24.61873
G1 X73.977 Y73.329 E24.64183
G1 X74.208 Y72.617 E24.66673
G1 X74.399 Y72.167 E24.68299
G1 X74.696 Y71.532 E24.7063
G1 X75.049 Y70.873 E24.73117
G1 X75.304 Y70.481 E24.74672
G1 X75.702 Y69.913 E24.76979
G1 X76.164 Y69.324 E24.79469
G1 X76.485 Y68.98 E24.81034
G1 X76.98 Y68.485 E24.83362
G1 X77.537 Y67.985 E24.85852
G1 X77.913 Y67.702 E24.87417
G1 X78.481 Y67.304 E24.89724
G1 X79.116 Y66.908 E24.92213
G1 X79.528 Y66.698 E24.93751
G1 X80.162 Y66.401 E24.96079
G1 X80.856 Y66.12 E24.9857
G1 X81.33 Y65.976 E25.00217
G1 X82.002 Y65.797 E25.0253
G1 X82.734 Y65.643 E25.05018
G1 X83.194 Y65.588 E25.06559
G1 X83.891 Y65.527 E25.08886
G1 X84.501 Y65.5 E25.10917
G1 X150.51 Y65.501 E27.30464
G1 X151.12 Y65.528 E27.32495
G1 X151.806 Y65.588 E27.34785
G1 X152.547 Y65.693 E27.37274
G1 X152.998 Y65.797 E27.38814
G1 X153.67 Y65.976 E27.41127
G1 X154.381 Y66.207 E27.43613
G1 X154.838 Y66.401 E27.45264
G1 X155.472 Y66.698 E27.47593
G1 X156.131 Y67.051 E27.5008
G1 X156.519 Y67.304 E27.5162
G1 X157.087 Y67.702 E27.53927
G1 X157.676 Y68.164 E27.56417
G1 X158.02 Y68.485 E27.57982
G1 X158.515 Y68.98 E27.6031
G1 X159.015 Y69.537 E27.62799
G1 X159.298 Y69.913 E27.64365
G1 X159.696 Y70.481 E27.66671
G1 X160.092 Y71.116 E27.69161
G1 X160.302 Y71.529 E27.70702
G1 X160.598 Y72.161 E27.73023
G1 X160.879 Y72.854 E27.7551
G1 X161.022 Y73.324 E27.77144
G1 X161.202 Y73.998 E27.79464
G1 X161.356 Y74.73 E27.81952
G1 X161.412 Y75.192 E27.835
G1 X161.473 Y75.887 E27.8582
G1 X161.5 Y76.499 E27.87858
G1 X161.499 Y158.51 E30.60628
G1 X161.472 Y159.12 E30.62659
G1 X161.412 Y159.806 E30.64949
G1 X161.307 Y160.547 E30.67438
G1 X161.202 Y161 E30.68985
G1 X161.023 Y161.671 E30.71295
G1 X160.792 Y162.383 E30.73784
G1 X160.601 Y162.833 E30.7541
G1 X160.304 Y163.468 E30.77742
G1 X159.951 Y164.127 E30.80228
G1 X159.696 Y164.519 E30.81784
G1 X159.298 Y165.087 E30.8409
G1 X158.836 Y165.676 E30.8658
G1 X158.515 Y166.02 E30.88145
G1 X158.02 Y166.515 E30.90473
G1 X157.463 Y167.015 E30.92963
G1 X157.087 Y167.298 E30.94528
G1 X156.519 Y167.696 E30.96835
G1 X155.884 Y168.092 E30.99324
G1 X155.472 Y168.302 E31.00862
G1 X154.838 Y168.599 E31.03191
G1 X154.144 Y168.88 E31.05681
G1 X153.67 Y169.024 E31.07329
G1 X152.998 Y169.203 E31.09642
G1 X152.266 Y169.357 E31.1213
G1 X151.806 Y169.412 E31.1367
G1 X151.109 Y169.473 E31.15998
G1 X150.499 Y169.5 E31.18028
G1 X84.49 Y169.499 E33.37575
G1 X83.88 Y169.472 E33.39606
G1 X83.194 Y169.412 E33.41896
G1 X82.453 Y169.307 E33.44386
G1 X82.002 Y169.203 E33.45925
G1 X81.33 Y169.024 E33.48238
G1 X80.619 Y168.793 E33.50724
G1 X80.162 Y168.599 E33.52376
G1 X79.528 Y168.302 E33.54704
G1 X78.869 Y167.949 E33.57191
G1 X78.481 Y167.696 E33.58731
G1 X77.913 Y167.298 E33.61038
G1 X77.324 Y166.836 E33.63528
G1 X76.98 Y166.515 E33.65093
G1 X76.485 Y166.02 E33.67421
G1 X75.985 Y165.463 E33.69911
G1 X75.702 Y165.087 E33.71476
G1 X75.304 Y164.519 E33.73783
G1 X74.908 Y163.884 E33.76272
G1 X74.696 Y163.468 E33.77825
G1 X74.399 Y162.833 E33.80156
G1 X74.119 Y162.139 E33.82645
G1 X73.977 Y161.671 E33.84272
G1 X73.798 Y161 E33.86582
G1 X73.644 Y160.268 E33.8907
G1 X73.588 Y159.808 E33.90611
G1 X73.527 Y159.113 E33.92932
G1 X73.5 Y158.501 E33.94969
G1 X73.501 Y76.49 E36.67739
G0 F6000 X73.901 Y76.49
G1 F1200 X73.926 Y75.915 E36.69653
G1 X73.986 Y75.229 E36.71943
G1 X74.089 Y74.51 E36.74359
G1 X74.184 Y74.103 E36.75749
G1 X74.363 Y73.432 E36.78059
G1 X74.589 Y72.741 E36.80477
G1 X74.762 Y72.337 E36.81939
G1 X75.059 Y71.702 E36.8427
G1 X75.402 Y71.062 E36.86686
G1 X75.632 Y70.711 E36.88081
G1 X76.03 Y70.143 E36.90388
G1 X76.479 Y69.572 E36.92804
G1 X76.768 Y69.263 E36.94211
G1 X77.263 Y68.768 E36.9654
G1 X77.804 Y68.284 E36.98954
G1 X78.143 Y68.03 E37.00363
G1 X78.711 Y67.632 E37.0267
G1 X79.327 Y67.248 E37.05084
G1 X79.698 Y67.06 E37.06467
G1 X80.332 Y66.763 E37.08796
G1 X81.006 Y66.492 E37.11212
G1 X81.433 Y66.362 E37.12697
G1 X82.105 Y66.183 E37.1501
G1 X82.816 Y66.035 E37.17425
G1 X83.229 Y65.986 E37.18808
G1 X83.926 Y65.925 E37.21135
G1 X84.501 Y65.9 E37.2305
G1 X150.51 Y65.901 E39.42597
G1 X151.085 Y65.926 E39.44511
G1 X151.771 Y65.986 E39.46801
G1 X152.49 Y66.089 E39.49217
G1 X152.895 Y66.183 E39.506
G1 X153.567 Y66.362 E39.52913
G1 X154.257 Y66.588 E39.55328
G1 X154.668 Y66.763 E39.56814
G1 X155.302 Y67.06 E39.59142
G1 X155.942 Y67.404 E39.61559
G1 X156.289 Y67.632 E39.6294
G1 X156.857 Y68.03 E39.65247
G1 X157.428 Y68.479 E39.67663
G1 X157.737 Y68.768 E39.6907
G1 X158.232 Y69.263 E39.71398
G1 X158.716 Y69.804 E39.73812
G1 X158.97 Y70.143 E39.75221
G1 X159.368 Y70.711 E39.77528
G1 X159.752 Y71.327 E39.79942
G1 X159.94 Y71.699 E39.81329
G1 X160.236 Y72.331 E39.8365
G1 X160.507 Y73.004 E39.86063
G1 X160.636 Y73.427 E39.87534
G1 X160.816 Y74.101 E39.89854
G1 X160.964 Y74.812 E39.9227
G1 X161.014 Y75.227 E39.9366
G1 X161.075 Y75.922 E39.9598
G1 X161.1 Y76.499 E39.97901
G1 X161.099 Y158.51 E42.70671
G1 X161.074 Y159.085 E42.72585
G1 X161.014 Y159.771 E42.74876
G1 X160.911 Y160.49 E42.77291
G1 X160.816 Y160.897 E42.78681
G1 X160.637 Y161.568 E42.80991
G1 X160.411 Y162.259 E42.83409
G1 X160.238 Y162.663 E42.84871
G1 X159.941 Y163.298 E42.87203
G1 X159.598 Y163.938 E42.89618
G1 X159.368 Y164.289 E42.91014
G1 X158.97 Y164.857 E42.9332
G1 X158.521 Y165.428 E42.95736
G1 X158.232 Y165.737 E42.97143
G1 X157.737 Y166.232 E42.99472
G1 X157.196 Y166.716 E43.01886
G1 X156.857 Y166.97 E43.03295
G1 X156.289 Y167.368 E43.05602
G1 X155.673 Y167.752 E43.08016
G1 X155.302 Y167.94 E43.094
G1 X154.668 Y168.237 E43.11728
G1 X153.994 Y168.508 E43.14144
G1 X153.567 Y168.638 E43.15629
G1 X152.895 Y168.817 E43.17942
G1 X152.184 Y168.965 E43.20357
G1 X151.771 Y169.014 E43.21741
G1 X151.074 Y169.075 E43.24068
G1 X150.499 Y169.1 E43.25982
G1 X84.49 Y169.099 E45.45529
G1 X83.915 Y169.074 E45.47443
G1 X83.229 Y169.014 E45.49733
G1 X82.51 Y168.911 E45.52149
G1 X82.105 Y168.817 E45.53532
G1 X81.433 Y168.638 E45.55845
G1 X80.743 Y168.412 E45.5826
G1 X80.332 Y168.237 E45.59746
G1 X79.698 Y167.94 E45.62074
G1 X79.058 Y167.596 E45.64491
G1 X78.711 Y167.368 E45.65872
G1 X78.143 Y166.97 E45.68179
G1 X77.572 Y166.521 E45.70595
G1 X77.263 Y166.232 E45.72002
G1 X76.768 Y165.737 E45.7433
G1 X76.284 Y165.196 E45.76745
G1 X76.03 Y164.857 E45.78154
G1 X75.632 Y164.289 E45.8046
G1 X75.248 Y163.673 E45.82875
G1 X75.059 Y163.298 E45.84271
G1 X74.762 Y162.663 E45.86603
G1 X74.491 Y161.989 E45.89019
G1 X74.363 Y161.568 E45.90483
G1 X74.184 Y160.897 E45.92792
G1 X74.036 Y160.186 E45.95208
G1 X73.986 Y159.773 E45.96592
G1 X73.925 Y159.078 E45.98912
G1 X73.9 Y158.501 E46.00833
G1 X73.901 Y76.49 E48.73603
G0 F6000 X74.301 Y76.49
G1 F1200 X74.325 Y75.95 E48.75401
G1 X74.385 Y75.264 E48.77691
G1 X74.486 Y74.567 E48.80033
G1 X74.57 Y74.206 E48.81266
G1 X74.749 Y73.535 E48.83576
G1 X74.969 Y72.866 E48.85918
G1 X75.124 Y72.506 E48.87222
G1 X75.421 Y71.871 E48.89553
G1 X75.755 Y71.252 E48.91893
G1 X75.959 Y70.94 E48.93133
G1 X76.357 Y70.372 E48.9544
G1 X76.794 Y69.819 E48.97784
G1 X77.051 Y69.546 E48.99031
G1 X77.546 Y69.051 E49.01359
G1 X78.071 Y68.582 E49.03701
G1 X78.372 Y68.357 E49.04951
G1 X78.94 Y67.959 E49.07257
G1 X79.539 Y67.589 E49.09599
G1 X79.868 Y67.423 E49.10825
G1 X80.502 Y67.126 E49.13153
G1 X81.155 Y66.864 E49.15493
G1 X81.536 Y66.749 E49.16817
G1 X82.208 Y66.57 E49.1913
G1 X82.898 Y66.428 E49.21473
G1 X83.263 Y66.385 E49.22696
G1 X83.96 Y66.324 E49.25023
G1 X84.501 Y66.3 E49.26824
G1 X150.51 Y66.301 E51.46371
G1 X151.05 Y66.325 E51.48168
G1 X151.736 Y66.385 E51.50459
G1 X152.433 Y66.486 E51.52801
G1 X152.792 Y66.57 E51.54028
G1 X153.464 Y66.749 E51.56341
G1 X154.133 Y66.968 E51.58682
G1 X154.498 Y67.126 E51.60005
G1 X155.132 Y67.423 E51.62333
G1 X155.752 Y67.757 E51.64676
G1 X156.06 Y67.959 E51.65901
G1 X156.628 Y68.357 E51.68208
G1 X157.181 Y68.794 E51.70552
G1 X157.454 Y69.051 E51.71799
G1 X157.949 Y69.546 E51.74127
G1 X158.418 Y70.071 E51.76469
G1 X158.643 Y70.372 E51.77719
G1 X159.041 Y70.94 E51.80025
