;FLAVOR:Marlin
;TIME:12881
;Filament used: 10.608m
;Layer height: 0.2
;MINX:41.5
;MINY:61.5
;MINZ:0.2
;MAXX:193.5
;MAXY:173.5
;MAXZ:6
;Generated with Cura_SteamEngine main
M140 S50
M105
M190 S50
M104 S200
M105
M109 S200
M82 ;absolute extrusion mode
; Ender 3 Custom Start G-code
G92 E0 ; Reset Extruder
G28 ; Home all axes
G1 Z2.0 F3000 ; Move Z Axis up little to prevent scratching of Heat Bed
G1 X0.1 Y20 Z0.3 F5000.0 ; Move to start position
G1 X0.1 Y200.0 Z0.3 F1500.0 E15 ; Draw the first line
G1 X0.4 Y200.0 Z0.3 F5000.0 ; Move to side a little
G1 X0.4 Y20 Z0.3 F1500.0 E30 ; Draw the second line
G92 E0 ; Reset Extruder
G1 Z2.0 F3000 ; Move Z Axis up little to prevent scratching of Heat Bed
G1 X5 Y20 Z0.3 F5000.0 ; Move over to prevent blob squish
G92 E0
G92 E0
G1 F2700 E-5
;LAYER_COUNT:30
;LAYER:0
M107
G0 F6000 X47.032 Y64.879 Z0.2
G0 X41.502 Y77.036
;TYPE:SKIRT
G1 F2700 E0
G1 F1200 X41.512 Y76.33 E0.02348
G1 X41.564 Y75.411 E0.0541
G1 X41.608 Y74.963 E0.06907
G1 X41.704 Y74.185 E0.09514
G1 X41.864 Y73.261 E0.12633
G1 X42.17 Y72.146 E0.16479
G1 X42.306 Y71.736 E0.17916
G1 X42.571 Y70.998 E0.20524
G1 X42.93 Y70.132 E0.23642
G1 X43.497 Y69.07 E0.27646
G1 X43.906 Y68.404 E0.30245
G1 X44.139 Y68.044 E0.31672
G1 X44.682 Y67.279 E0.34792
G1 X45.44 Y66.402 E0.38647
G1 X45.991 Y65.837 E0.41272
G1 X46.333 Y65.504 E0.4286
G1 X47.032 Y64.879 E0.45979
G1 X47.974 Y64.187 E0.49866
G1 X48.614 Y63.774 E0.524
G1 X49.028 Y63.521 E0.54013
G1 X49.848 Y63.066 E0.57132
G1 X50.979 Y62.579 E0.61228
G1 X51.705 Y62.318 E0.63794
G1 X52.141 Y62.173 E0.65322
G1 X53.042 Y61.915 E0.68439
G1 X54.165 Y61.707 E0.72238
G1 X54.98 Y61.606 E0.74969
G1 X55.486 Y61.558 E0.7666
G1 X56.381 Y61.51 E0.79641
G1 X57.211 Y61.5 E0.82402
G1 X177.967 Y61.502 E4.84038
G1 X178.665 Y61.512 E4.8636
G1 X179.562 Y61.562 E4.89348
G1 X180.337 Y61.642 E4.91939
G1 X180.783 Y61.699 E4.93435
G1 X181.708 Y61.857 E4.96556
G1 X182.844 Y62.167 E5.00472
G1 X183.595 Y62.422 E5.0311
G1 X184.055 Y62.592 E5.04741
G1 X184.92 Y62.954 E5.0786
G1 X185.981 Y63.526 E5.11869
G1 X186.587 Y63.901 E5.14239
G1 X186.962 Y64.144 E5.15726
G1 X187.726 Y64.687 E5.18843
G1 X188.58 Y65.422 E5.22591
G1 X189.152 Y65.978 E5.25244
G1 X189.494 Y66.329 E5.26874
G1 X190.119 Y67.029 E5.29995
G1 X190.826 Y67.993 E5.33971
G1 X191.216 Y68.599 E5.36368
G1 X191.475 Y69.022 E5.38018
G1 X191.93 Y69.842 E5.41137
G1 X192.421 Y70.978 E5.45253
G1 X192.571 Y71.387 E5.46702
G1 X192.829 Y72.148 E5.49374
G1 X193.086 Y73.05 E5.52494
G1 X193.293 Y74.16 E5.56249
G1 X193.39 Y74.938 E5.58857
G1 X193.438 Y75.428 E5.60495
G1 X193.489 Y76.345 E5.63549
G1 X193.5 Y77.211 E5.6643
G1 X193.498 Y157.965 E8.35019
G1 X193.488 Y158.664 E8.37344
G1 X193.438 Y159.561 E8.40332
G1 X193.358 Y160.338 E8.4293
G1 X193.299 Y160.796 E8.44466
G1 X193.139 Y161.721 E8.47588
G1 X192.835 Y162.837 E8.51435
G1 X192.583 Y163.583 E8.54054
G1 X192.414 Y164.042 E8.55681
G1 X192.052 Y164.907 E8.588
G1 X191.471 Y165.987 E8.62879
G1 X191.107 Y166.575 E8.65179
G1 X190.866 Y166.948 E8.66656
G1 X190.324 Y167.713 E8.69774
G1 X189.56 Y168.598 E8.73663
G1 X189.009 Y169.163 E8.76287
G1 X188.667 Y169.496 E8.77875
G1 X187.968 Y170.121 E8.80994
G1 X187.026 Y170.813 E8.84881
G1 X186.683 Y171.038 E8.86246
G1 X185.966 Y171.482 E8.89051
G1 X185.146 Y171.937 E8.9217
G1 X184.03 Y172.418 E8.96212
G1 X183.297 Y172.682 E8.98803
G1 X182.861 Y172.827 E9.00331
G1 X181.96 Y173.085 E9.03448
G1 X180.83 Y173.294 E9.07271
G1 X180.022 Y173.394 E9.09978
G1 X179.517 Y173.442 E9.11666
G1 X178.62 Y173.49 E9.14653
G1 X177.789 Y173.5 E9.17418
G1 X57.033 Y173.498 E13.19054
G1 X56.335 Y173.488 E13.21375
G1 X55.438 Y173.438 E13.24363
G1 X54.663 Y173.358 E13.26955
G1 X54.217 Y173.301 E13.2845
G1 X53.292 Y173.143 E13.31571
G1 X52.156 Y172.833 E13.35488
G1 X51.44 Y172.591 E13.38002
G1 X50.997 Y172.429 E13.39571
G1 X50.131 Y172.07 E13.42689
G1 X49.079 Y171.509 E13.46654
G1 X48.699 Y171.279 E13.48131
G1 X48.045 Y170.861 E13.50713
G1 X47.28 Y170.319 E13.53831
G1 X46.401 Y169.559 E13.57696
G1 X46.097 Y169.267 E13.59098
G1 X45.504 Y168.666 E13.61906
G1 X44.879 Y167.967 E13.65025
G1 X44.179 Y167.014 E13.68958
G1 X43.782 Y166.398 E13.71395
G1 X43.527 Y165.982 E13.73018
G1 X43.071 Y165.162 E13.76139
G1 X42.572 Y164.006 E13.80326
G1 X42.423 Y163.598 E13.81771
G1 X42.177 Y162.874 E13.84314
G1 X41.918 Y161.972 E13.87436
G1 X41.701 Y160.802 E13.91394
G1 X41.609 Y160.049 E13.93917
G1 X41.562 Y159.568 E13.95524
G1 X41.511 Y158.653 E13.98572
G1 X41.5 Y157.789 E14.01446
G1 X41.502 Y77.036 E16.70032
G0 F6000 X41.902 Y77.042
G1 F1200 X41.912 Y76.336 E16.7238
G1 X41.962 Y75.45 E16.75331
G1 X42.044 Y74.666 E16.77953
G1 X42.1 Y74.237 E16.79392
G1 X42.259 Y73.33 E16.82455
G1 X42.55 Y72.272 E16.86105
G1 X42.791 Y71.56 E16.88605
G1 X42.946 Y71.136 E16.90106
G1 X43.3 Y70.285 E16.93172
G1 X43.839 Y69.277 E16.96974
G1 X44.078 Y68.883 E16.98506
G1 X44.475 Y68.262 E17.00958
G1 X45.009 Y67.511 E17.04023
G1 X45.729 Y66.679 E17.07682
G1 X46.27 Y66.123 E17.10262
G1 X46.612 Y65.79 E17.1185
G1 X47.299 Y65.177 E17.14912
G1 X48.193 Y64.522 E17.18599
G1 X48.823 Y64.115 E17.21093
G1 X49.237 Y63.862 E17.22707
G1 X50.042 Y63.417 E17.25766
G1 X51.116 Y62.954 E17.29656
G1 X51.528 Y62.803 E17.31116
G1 X52.267 Y62.553 E17.3371
G1 X53.152 Y62.3 E17.36772
G1 X54.218 Y62.103 E17.40377
G1 X55.018 Y62.004 E17.43058
G1 X55.524 Y61.956 E17.44749
G1 X56.386 Y61.91 E17.4762
G1 X57.211 Y61.9 E17.50364
G1 X177.961 Y61.902 E21.5198
G1 X178.659 Y61.912 E21.54302
G1 X179.523 Y61.96 E21.5718
G1 X179.959 Y62.002 E21.58637
G1 X180.733 Y62.096 E21.6123
G1 X181.64 Y62.252 E21.64291
G1 X182.718 Y62.546 E21.68008
G1 X183.456 Y62.797 E21.706
G1 X183.916 Y62.967 E21.72232
G1 X184.765 Y63.324 E21.75295
G1 X185.772 Y63.867 E21.791
G1 X186.369 Y64.236 E21.81434
G1 X186.744 Y64.479 E21.82921
G1 X187.495 Y65.013 E21.85985
G1 X188.303 Y65.712 E21.89539
G1 X188.865 Y66.258 E21.92145
G1 X189.207 Y66.609 E21.93775
G1 X189.82 Y67.295 E21.96835
G1 X190.491 Y68.212 E22.00614
G1 X190.875 Y68.808 E22.02972
G1 X191.134 Y69.231 E22.04622
G1 X191.58 Y70.036 E22.07683
G1 X192.046 Y71.116 E22.11595
G1 X192.305 Y71.837 E22.14143
G1 X192.45 Y72.274 E22.15675
G1 X192.701 Y73.159 E22.18734
G1 X192.896 Y74.213 E22.22299
G1 X192.992 Y74.977 E22.2486
G1 X193.04 Y75.467 E22.26498
G1 X193.089 Y76.351 E22.29443
G1 X193.1 Y77.211 E22.32303
G1 X193.098 Y157.96 E25.00875
G1 X193.088 Y158.659 E25.03201
G1 X193.04 Y159.522 E25.06075
G1 X192.961 Y160.287 E25.08633
G1 X192.902 Y160.745 E25.10169
G1 X192.745 Y161.652 E25.13231
G1 X192.455 Y162.712 E25.16886
G1 X192.207 Y163.444 E25.19456
G1 X192.038 Y163.903 E25.21083
G1 X191.683 Y164.753 E25.24147
G1 X191.13 Y165.778 E25.28021
G1 X190.771 Y166.358 E25.30289
G1 X190.53 Y166.731 E25.31767
G1 X189.998 Y167.481 E25.34825
G1 X189.272 Y168.321 E25.38518
G1 X188.73 Y168.877 E25.411
G1 X188.388 Y169.21 E25.42688
G1 X187.701 Y169.823 E25.4575
G1 X186.807 Y170.478 E25.49436
G1 X186.174 Y170.887 E25.51943
G1 X185.758 Y171.141 E25.53564
G1 X184.952 Y171.586 E25.56626
G1 X183.892 Y172.043 E25.60465
G1 X183.484 Y172.193 E25.61911
G1 X182.735 Y172.447 E25.64542
G1 X181.85 Y172.7 E25.67603
G1 X180.777 Y172.898 E25.71232
G1 X180.368 Y172.952 E25.72604
G1 X179.479 Y173.043 E25.75577
G1 X178.615 Y173.09 E25.78455
G1 X177.789 Y173.1 E25.81202
G1 X57.039 Y173.098 E29.82818
G1 X56.341 Y173.088 E29.8514
G1 X55.477 Y173.04 E29.88018
G1 X55.041 Y172.998 E29.89475
G1 X54.267 Y172.904 E29.92068
G1 X53.36 Y172.748 E29.95129
G1 X52.282 Y172.454 E29.98846
G1 X51.889 Y172.324 E30.00222
G1 X51.134 Y172.053 E30.0289
G1 X50.284 Y171.7 E30.05952
G1 X49.286 Y171.166 E30.09716
G1 X48.906 Y170.936 E30.11194
G1 X48.263 Y170.525 E30.13732
G1 X47.512 Y169.992 E30.16795
G1 X46.678 Y169.271 E30.20462
G1 X46.374 Y168.979 E30.21864
G1 X45.79 Y168.387 E30.24629
G1 X45.177 Y167.701 E30.27689
G1 X44.514 Y166.795 E30.31423
G1 X44.123 Y166.189 E30.33822
G1 X43.868 Y165.773 E30.35445
G1 X43.421 Y164.968 E30.38507
G1 X42.948 Y163.869 E30.42487
G1 X42.702 Y163.184 E30.44908
G1 X42.556 Y162.747 E30.4644
G1 X42.303 Y161.862 E30.49502
G1 X42.098 Y160.75 E30.53262
G1 X42.007 Y160.01 E30.55742
G1 X41.96 Y159.529 E30.5735
G1 X41.911 Y158.647 E30.60288
G1 X41.9 Y157.789 E30.63142
G1 X41.902 Y77.042 E33.31707
G0 F6000 X42.302 Y77.048
G1 F1200 X42.312 Y76.342 E33.34056
G1 X42.36 Y75.489 E33.36897
G1 X42.404 Y75.041 E33.38395
G1 X42.497 Y74.289 E33.40915
G1 X42.653 Y73.399 E33.4392
G1 X42.93 Y72.398 E33.47374
G1 X43.167 Y71.697 E33.49836
G1 X43.322 Y71.273 E33.51337
G1 X43.669 Y70.439 E33.54342
G1 X44.181 Y69.485 E33.57943
G1 X44.42 Y69.091 E33.59475
G1 X44.811 Y68.479 E33.61891
G1 X45.335 Y67.743 E33.64896
G1 X46.017 Y66.956 E33.6836
G1 X46.549 Y66.41 E33.70895
G1 X46.891 Y66.077 E33.72483
G1 X47.566 Y65.476 E33.75489
G1 X48.412 Y64.856 E33.78977
G1 X48.755 Y64.631 E33.80342
G1 X49.445 Y64.204 E33.8304
G1 X50.236 Y63.767 E33.86046
G1 X51.254 Y63.33 E33.89731
G1 X51.957 Y63.077 E33.92216
G1 X52.393 Y62.932 E33.93744
G1 X53.262 Y62.685 E33.96749
G1 X54.27 Y62.5 E34.00157
G1 X55.056 Y62.403 E34.02791
G1 X55.562 Y62.355 E34.04482
G1 X56.391 Y62.31 E34.07243
G1 X57.211 Y62.3 E34.09971
G1 X177.955 Y62.302 E38.11567
G1 X178.653 Y62.312 E38.13889
G1 X179.485 Y62.358 E38.1666
G1 X180.236 Y62.435 E38.19171
G1 X180.682 Y62.492 E38.20667
G1 X181.572 Y62.646 E38.23671
G1 X182.592 Y62.926 E38.27189
G1 X183.318 Y63.172 E38.29738
G1 X183.778 Y63.342 E38.3137
G1 X184.61 Y63.693 E38.34373
G1 X185.564 Y64.208 E38.37979
G1 X185.927 Y64.43 E38.39394
G1 X186.527 Y64.815 E38.41765
G1 X187.262 Y65.339 E38.44767
G1 X188.027 Y66.001 E38.48132
G1 X188.579 Y66.537 E38.50691
G1 X188.921 Y66.888 E38.52321
G1 X189.522 Y67.562 E38.55325
G1 X190.156 Y68.43 E38.589
G1 X190.534 Y69.017 E38.61222
G1 X190.793 Y69.44 E38.62872
G1 X191.23 Y70.23 E38.65874
G1 X191.67 Y71.254 E38.69581
G1 X191.925 Y71.963 E38.72087
G1 X192.07 Y72.4 E38.73619
G1 X192.316 Y73.269 E38.76623
G1 X192.5 Y74.266 E38.79995
G1 X192.553 Y74.664 E38.8133
G1 X192.641 Y75.506 E38.84146
G1 X192.689 Y76.357 E38.86981
G1 X192.7 Y77.211 E38.89822
G1 X192.698 Y157.954 E41.58374
G1 X192.688 Y158.653 E41.60699
G1 X192.642 Y159.484 E41.63467
G1 X192.601 Y159.91 E41.64891
G1 X192.505 Y160.694 E41.67518
G1 X192.35 Y161.584 E41.70522
G1 X192.075 Y162.587 E41.73981
G1 X191.832 Y163.306 E41.76506
G1 X191.663 Y163.765 E41.78133
G1 X191.314 Y164.598 E41.81136
G1 X190.789 Y165.569 E41.84808
G1 X190.566 Y165.933 E41.86228
G1 X190.194 Y166.513 E41.88519
G1 X189.671 Y167.25 E41.91525
G1 X188.983 Y168.044 E41.9502
G1 X188.451 Y168.59 E41.97555
G1 X188.109 Y168.923 E41.99143
G1 X187.434 Y169.524 E42.02149
G1 X186.588 Y170.144 E42.05637
G1 X185.965 Y170.546 E42.08103
G1 X185.549 Y170.8 E42.09724
G1 X184.759 Y171.236 E42.12726
G1 X183.754 Y171.668 E42.16364
G1 X183.346 Y171.818 E42.1781
G1 X182.609 Y172.068 E42.20398
G1 X181.74 Y172.315 E42.23403
G1 X180.725 Y172.501 E42.26835
G1 X179.946 Y172.597 E42.29446
G1 X179.441 Y172.645 E42.31133
G1 X178.61 Y172.69 E42.33901
G1 X177.789 Y172.7 E42.36632
G1 X57.045 Y172.698 E46.38228
G1 X56.347 Y172.688 E46.4055
G1 X55.515 Y172.642 E46.43321
G1 X54.764 Y172.565 E46.45832
G1 X54.318 Y172.508 E46.47328
G1 X53.428 Y172.354 E46.50332
G1 X52.408 Y172.074 E46.5385
G1 X51.715 Y171.84 E46.56282
G1 X51.272 Y171.678 E46.57851
G1 X50.438 Y171.33 E46.60857
G1 X49.493 Y170.824 E46.64422
G1 X48.854 Y170.432 E46.66916
G1 X48.48 Y170.19 E46.68397
G1 X47.744 Y169.666 E46.71402
G1 X46.955 Y168.982 E46.74875
G1 X46.651 Y168.69 E46.76277
G1 X46.077 Y168.108 E46.78996
G1 X45.476 Y167.434 E46.82
G1 X44.849 Y166.576 E46.85534
G1 X44.464 Y165.98 E46.87894
G1 X44.209 Y165.564 E46.89517
G1 X43.771 Y164.774 E46.92521
G1 X43.324 Y163.732 E46.96292
G1 X43.175 Y163.324 E46.97737
G1 X42.936 Y162.62 E47.0021
G1 X42.688 Y161.752 E47.03212
G1 X42.495 Y160.699 E47.06773
G1 X42.405 Y159.971 E47.09213
G1 X42.358 Y159.49 E47.1082
G1 X42.311 Y158.642 E47.13645
G1 X42.3 Y157.789 E47.16482
G1 X42.302 Y77.048 E49.85028
G1 F2700 E44.85028
;MESH:sensor-lid.stl
G0 F6000 X51.835 Y77.05
G0 X57.92 Y80.485
;TYPE:WALL-INNER
G1 F2700 E49.85028
G1 F1200 X57 Y80.606 E49.88114
G1 X56.066 Y80.484 E49.91247
G1 X55.196 Y80.124 E49.94379
G1 X54.448 Y79.549 E49.97517
G1 X53.874 Y78.803 E50.00647
G1 X53.511 Y77.923 E50.03814
G1 F1218.3 X53.481 Y77.616 E50.04824
G1 F1256.5 X53.451 Y77.308 E50.05807
G1 F1297.3 X53.421 Y77.001 E50.06756
G1 X53.464 Y76.554 E50.08138
G1 F1263.2 X53.498 Y76.283 E50.09001
G1 F1230.8 X53.533 Y76.012 E50.09887
G1 F1191.1 X53.642 Y75.738 E50.10875
G1 F1142.9 X53.751 Y75.464 E50.11905
G1 F1098.4 X53.861 Y75.189 E50.12981
G1 F1069 X54.045 Y74.939 E50.1414
G1 F1054.9 X54.23 Y74.688 E50.1532
G1 F1069 X54.438 Y74.439 E50.16531
G1 X54.688 Y74.23 E50.17747
G1 F1054.9 X54.942 Y74.044 E50.18939
G1 F1069 X55.197 Y73.858 E50.20117
G1 F1088.4 X55.463 Y73.753 E50.21166
G1 F1113.7 X55.729 Y73.647 E50.22192
G1 F1140.1 X55.995 Y73.541 E50.23194
G1 F1182.3 X56.282 Y73.502 E50.24172
G1 F1243.5 X56.568 Y73.463 E50.25098
G1 F1297.3 X57 Y73.421 E50.26434
G1 X57.306 Y73.45 E50.27379
G1 F1253.3 X57.613 Y73.48 E50.28362
G1 F1215.2 X57.92 Y73.51 E50.29375
G1 F1197 X58.804 Y73.876 E50.32565
G1 F1200 X59.55 Y74.449 E50.35694
G1 X60.123 Y75.194 E50.3882
G1 X60.484 Y76.066 E50.41959
G1 X60.606 Y77 E50.45092
G1 X60.485 Y77.92 E50.48178
G1 X60.125 Y78.804 E50.51352
G1 X59.547 Y79.547 E50.54483
G1 X58.868 Y80.075 E50.57344
G1 X58.774 Y80.135 E50.57715
G1 X57.92 Y80.485 E50.60785
G0 F6000 X57.833 Y80.091
;TYPE:WALL-OUTER
G1 F1200 X57 Y80.202 E50.6358
G1 X56.17 Y80.094 E50.66364
G1 X55.397 Y79.774 E50.69146
G1 X54.733 Y79.263 E50.71933
G1 X54.225 Y78.602 E50.74706
G1 X53.906 Y77.826 E50.77496
G1 X53.797 Y77 E50.80268
G1 X53.906 Y76.17 E50.83052
G1 X54.221 Y75.409 E50.85791
G1 X54.736 Y74.736 E50.8861
G1 X55.409 Y74.221 E50.91428
G1 X56.165 Y73.909 E50.94149
G1 X57 Y73.797 E50.96951
G1 X57.826 Y73.906 E50.99722
G1 X58.603 Y74.226 E51.02517
G1 X59.265 Y74.735 E51.05294
G1 X59.773 Y75.395 E51.08064
G1 X60.094 Y76.17 E51.10854
G1 X60.202 Y77 E51.13638
G1 X60.091 Y77.833 E51.16433
G1 X59.765 Y78.616 E51.19254
G1 X59.252 Y79.275 E51.22032
G1 X58.624 Y79.758 E51.24667
G1 X58.593 Y79.778 E51.2479
G1 X57.833 Y80.091 E51.27523
G1 F2700 E46.27523
G0 F6000 X57.947 Y80.368
G0 X55.927 Y80.601
G0 X53.695 Y78.791
G0 X53.305 Y77.843
G0 X53.261 Y78.097
G0 X53.3 Y157.156
G0 X55.209 Y154.696
G0 X58.071 Y154.399
G0 X59.434 Y155.566
G0 X59.981 Y156.278
G0 X60.326 Y157.11
G0 X60.443 Y158
G0 X60.326 Y158.89
G0 X59.981 Y159.722
G0 X58.7 Y161.277
G1 F2700 E51.27523
G0 F6000 X58.803 Y161.126
;TYPE:WALL-INNER
G1 F1200 X57.923 Y161.489 E51.30689
G1 F1209.1 X57.614 Y161.519 E51.31714
G1 F1233.9 X57.304 Y161.549 E51.32722
G1 F1259.8 X56.995 Y161.58 E51.33705
G1 F1263.2 X56.671 Y161.544 E51.34736
G1 F1243.5 X56.346 Y161.507 E51.35785
G1 F1224.5 X56.021 Y161.47 E51.36852
G1 F1188.1 X55.747 Y161.361 E51.37842
G1 F1140.1 X55.473 Y161.252 E51.38874
G1 F1098.4 X55.198 Y161.143 E51.39949
G1 F1069 X54.943 Y160.956 E51.4113
G1 F1054.9 X54.688 Y160.77 E51.42324
G1 F1069 X54.439 Y160.562 E51.43535
G1 X54.23 Y160.312 E51.44752
G1 F1054.9 X54.044 Y160.057 E51.45946
G1 F1069 X53.857 Y159.802 E51.47127
G1 F1088.4 X53.752 Y159.538 E51.48168
G1 F1113.7 X53.646 Y159.273 E51.49191
G1 F1140.1 X53.54 Y159.008 E51.5019
G1 F1182.3 X53.502 Y158.721 E51.51168
G1 F1243.5 X53.463 Y158.434 E51.52097
G1 F1297.3 X53.421 Y158 E51.53439
G1 X53.45 Y157.694 E51.54384
G1 F1253.3 X53.48 Y157.387 E51.55367
G1 F1215.2 X53.51 Y157.08 E51.5638
G1 F1197 X53.876 Y156.196 E51.5957
G1 F1200 X54.449 Y155.45 E51.62699
G1 X55.194 Y154.877 E51.65825
